X:6
T:Lichtmann 6
C:A. Campra
M:2/2
L:1/4
Q:"Moderato" 1/2=80
K:C
!f!G2"_stately"G2|G2FE|DEDC|(B,3/A,/) G,G|AGAB|c B/A/ G F/E/|
DCDB,|(C/G,/)A,/B,/ C/D/E/F/|G2G2|G2FE|DE(D/E/)D/C/|(B,3/A,/)G,G|
AGAB|c B/A/ G F/E/|DC D/C/B,|C4||E2EE|E2D2|(E/D/)E/F/ED|
E2DG|GABc|d3c/B/|AGAB|GDEF||G3/A/ (G/A/)G/A/|G2FE|
DE (D/E/)D/C/|(B,/C/)B,/A,/ G,G|A/G/ F (A/G/)A/B/|c B/A/ G F/E/|DCD/C/B,|C4|]

